X:1
T:Io ardo si ma'l foco
T:Claudio Monteverde
T:Source : Primo libro delle canzonette a tre voci---Venetia---R.Amadino---1594. Editor : André Vierendeels ( 25/07/17).
T:Notes : Original clefs : G2, C1, F3 Editorial accidentals above the staff 
T:Io ardo si ma'l foco
T:©
T:©
C:Claudio Monteverde
Z:©
%%score [ 1 2 3 ]
L:1/8
Q:1/4=120
M:4/4
K:C
V:1 treble nm="Soprano 1" snm="S 1"
V:2 treble nm="Soprano 2" snm="S 2"
V:3 treble-8 nm="Tenor" snm="T"
V:1
 e8 | e4 e4 | f8 | a2 a4 g2 | f2 d2 g4 | g4 z4 | z4 a4 | g2 f2 e2 f2 | g6 g2 | g4 f4 | e8 | %11
w: Io|ar- do|si|ma'l fo- co'è|di tal sor-|te,|che|mo- ro'e na- sco|poi do-|po ma|mor-|
w: Na-|sce da|que-|sta fiam- ma'un|tal ar- do-|re,|che|dol- ce- men- te|m'ar- d'e|nu- tre'il|co-|
w: Co-|si vi-|ven-|do'in que- sta|no- bil fiam-|ma,|dol-|ce- men- te si|sfa- ce'a|dram- m'a|dram-|
[M:2/4] d4 :: a4 |[M:4/4] g2 a2 f2 g2 | a6 a2 | f4 f4 | g4 a4 | z4 f4- | f4 e4 | z2 fg a2 d2 | %20
w: te,|co-|si nel suo bel|fo- co|la Fe-|ni- ce,|mo-|* re|e ri- na- sce|
w: re,|co-|si vi- ve con-|ten ta'in|pu- ro|fo- co,|e||lie- to si con-|
w: ma,|on-|de pre- go che'l|fo- co'e-|ter no|si- a,|poi|_ che|poi che si dol-|
 e2 f2 g2 ef | g2 e2 f2 g2 | a2 f2 e4 | d8 |] %24
w: piu che mai, e ri-|nas- ce piu che|mai fe- li-|ce.|
w: su- * ma, lie- to|si con- su- m'à|po- co'à po-|co.|
w: c'è que- sta, poi che|si dol- c'è que-|sta pe- na|mia.|
V:2
 c8 | B4 ^c4 | d8 | f2 f4 e2 | c2 d2 e4 | e4 f4 | e2 d2 c2 d2 | e6 e2 | e4 d4 | ^c4 d4- | d4 ^c4 | %11
w: Io|ar- do|si|ma'l fo- co'è|di tal sor-|te, che|mo- ro'e na- sco|poi do-|po la|mor- *||
w: Na-|sce de|que-|sta fiam- ma'un|tal ar- do-|re, che|dol- ce- men- te|m'ar- d'e|nu- tre'il|co- *||
w: Co-|si vi-|ven-|do'in que- sta|no- bil fiam-|ma, dol-|ce- men- te si|sfa- ce'a|dram- m'a|dram- *||
[M:2/4] d4 :: f4 |[M:4/4] e2 f2 d2 e2 | f6 f2 | d4 d4 | e4 f4 | d8 | ^c8 | z2 AA A2 d2 | %20
w: te,|co-|si nel suo bel|fo- co|la Fe-|ni- ce,|mo-|re,|e ri- na- sce|
w: re,|co-|si vi- ve con-|ten- ta'in|pu- ro|fo- co,|e||lie- to si con-|
w: ma,|on|de pre- go che'l|fo- co'e-|ter- no|si- a,|poi|che|poi che si dol-|
"^-natural" c2 d2 e2 cd | e2 c2 d2 e2 | f2 d2 ^c4 | d8 |] %24
w: piu che mai, e ri-|nas- ce piu che|mai fe- li-|ce.|
w: su- * ma, lie- to|si con- su- m'à|po- co'à po-|co.|
w: c'è que- sta, poi che|si dol- c'è que-|sta pe- na|mia.|
V:3
 A8 | ^G4 A4 | D8 | d2 d4 G2 | A2 B2 c4 | c4 d4 | c2 B2 A2 B2 | c6 c2 | c4 B4 | A8- | A8 | %11
w: Io|ar- do|si|ma'l fo- co'è|di tal sor-|te, che|mo- ro'e na- sco|poi do-|po la|mor-||
w: Na-|sce de|que-|sta fiam- ma'un|tal ar- do-|re, che|dol- ce- men- te|m'ar- d'e|nu- tre'il|co-||
w: o-|si vi-|ven-|do'in que- sta|no- bil fiam-|ma, dol-|ce- men- te si|sfa- ce'a|dram- m'a|dram-||
[M:2/4] D4 :: F4 |[M:4/4] c2 A2 _B2 G2 | F6 F2 | _B4 d4 | c4 F4 | _B8 | A8 | z2 FF F2 _B2 | %20
w: te,|co-|si nel suo bel|fo- co|le Fe-|ni- ce,|mo-|re|e ri- na- sce|
w: re,|co-|si vi- ve con-|ten- ta'in|pu- ro|fo- co,|e|_|lie- to si con-|
w: ma,|on-|de pre- go che'l|fo- co'e-|ter- no|si- a,|poi|_|poi che si dol-|
 A2 d2 c4- | c4 _B4 | A8 | D8 |] %24
w: piu che mai|_ fe-|li-|ce.|
w: su- m'à po-|* co'à|po-|co.|
w: c'è que- sta,|_ pe-|na|mia.|

